icons/op-priority-24.svg

<svg width="24" height="24" viewBox="0 0 24 24" fill="none" xmlns="http://www.w3.org/2000/svg">
<path d="M12 7.5C10.5574 7.5 9.37705 8.625 9.37705 10C9.37705 11.375 10.5574 12.5 12 12.5C13.4426 12.5 14.623 11.375 14.623 10C14.623 8.625 13.4426 7.5 12 7.5ZM17.2459 10C17.2459 9.65625 17.2131 9.34375 17.1475 9.03125L18 8.15625L16.7541 7.90625C16.459 7.3125 16.0656 6.78125 15.541 6.34375L15.7049 5.15625L14.5574 5.65625C13.9672 5.34375 13.3115 5.125 12.623 5.0625L12 4L11.377 5.0625C10.6885 5.125 10.0328 5.34375 9.44262 5.65625L8.29508 5.15625L8.45902 6.34375C7.93443 6.78125 7.54098 7.3125 7.2459 7.90625L6 8.15625L6.85246 9.03125C6.78689 9.34375 6.7541 9.65625 6.7541 10C6.7541 10.3438 6.78689 10.6562 6.85246 10.9688L6 11.8438L7.2459 12.0938C7.54098 12.6875 7.93443 13.2188 8.45902 13.6562L8.62295 13.8125L7.80328 20L12 16L16.1967 20L15.377 13.8125L15.541 13.6562C16.0656 13.2188 16.459 12.6875 16.7541 12.0938L18 11.8438L17.1475 10.9688C17.2131 10.6562 17.2459 10.3438 17.2459 10ZM12 13.5C9.96721 13.5 8.32787 11.9375 8.32787 10C8.32787 8.0625 9.96721 6.5 12 6.5C14.0328 6.5 15.6721 8.0625 15.6721 10C15.6721 11.9375 14.0328 13.5 12 13.5Z" fill="black"/>
</svg>

<svg xmlns="http://www.w3.org/2000/svg" width="24" height="24" viewBox="0 0 24 24"><path d="M12 7.5c-1.443 0-2.623 1.125-2.623 2.5s1.18 2.5 2.623 2.5c1.443 0 2.623-1.125 2.623-2.5S13.443 7.5 12 7.5Zm5.246 2.5c0-.344-.033-.656-.098-.969L18 8.156l-1.246-.25a4.742 4.742 0 0 0-1.213-1.562l.164-1.188-1.148.5a5.158 5.158 0 0 0-1.934-.594L12 4l-.623 1.062a5.158 5.158 0 0 0-1.934.594l-1.148-.5.164 1.188a4.742 4.742 0 0 0-1.213 1.562L6 8.156l.852.875a4.675 4.675 0 0 0-.098.969c0 .344.033.656.098.969L6 11.844l1.246.25a4.742 4.742 0 0 0 1.213 1.562l.164.156L7.803 20 12 16l4.197 4-.82-6.188.164-.156a4.742 4.742 0 0 0 1.213-1.562l1.246-.25-.852-.875c.065-.313.098-.625.098-.969ZM12 13.5c-2.033 0-3.672-1.562-3.672-3.5S9.967 6.5 12 6.5c2.033 0 3.672 1.562 3.672 3.5S14.033 13.5 12 13.5Z"/></svg>
